X: 38156
T: Sporting Paddy
R: reel
M: 4/4
K: Edorian
BEEF DEFD|BEEF DB A2|BEEF DEFA|BAdB AFED|
BEEA DEFD|BEEF D2 BA|BEEF DEFA|BcdB A2 Bc||
dB B2 dBAB|dB B2 e2 fe|dB B2 dBAd|BcdB A2 Bc|
dB B2 dBAB|dB B2 e2 de|fdef dB A2|BcdB AFED||

